source/assets/images/github.svg

<?xml version="1.0" encoding="utf-8"?>
<!-- Generator: Adobe Illustrator 18.0.0, SVG Export Plug-In . SVG Version: 6.00 Build 0)  -->
<!DOCTYPE svg PUBLIC "-//W3C//DTD SVG 1.1//EN" "http://www.w3.org/Graphics/SVG/1.1/DTD/svg11.dtd">
<svg version="1.1" xmlns="http://www.w3.org/2000/svg" xmlns:xlink="http://www.w3.org/1999/xlink" x="0px" y="0px"
	 viewBox="0 0 50.3 49" enable-background="new 0 0 50.3 49" xml:space="preserve">
<g id="Layer_1">
	<path id="github-icon_2_" fill="#FFFFFF" d="M25.1,0C11.3,0,0,11.3,0,25.1C0,36.2,7.2,45.7,17.2,49c1.3,0.2,1.7-0.5,1.7-1.2v-4.7
		c-7,1.5-8.4-3-8.4-3c-1.1-2.9-2.8-3.7-2.8-3.7c-2.3-1.6,0.2-1.5,0.2-1.5c2.5,0.2,3.9,2.6,3.9,2.6c2.2,3.8,5.9,2.7,7.3,2.1
		c0.2-1.6,0.9-2.7,1.6-3.4C15,35.6,9.1,33.5,9.1,23.8c0-2.7,1-5,2.6-6.7c-0.3-0.6-1.1-3.2,0.2-6.7c0,0,2.1-0.7,6.9,2.6
		c2-0.6,4.2-0.8,6.3-0.8c2.1,0,4.3,0.3,6.3,0.8c4.8-3.3,6.9-2.6,6.9-2.6c1.4,3.5,0.5,6,0.2,6.7c1.6,1.8,2.6,4,2.6,6.7
		c0,9.7-5.9,11.8-11.5,12.4c0.9,0.8,1.7,2.3,1.7,4.7c0,3.4,0,6.1,0,6.9c0,0.7,0.4,1.5,1.7,1.2c10-3.3,17.2-12.7,17.2-23.9
		C50.3,11.3,39,0,25.1,0z"/>
</g>
<g id="Layer_2" display="none">
</g>
</svg>

<?xml version="1.0" encoding="UTF-8" standalone="no"?>
<svg width="51px" height="50px" viewBox="0 0 51 50" version="1.1" xmlns="http://www.w3.org/2000/svg" xmlns:xlink="http://www.w3.org/1999/xlink">
    <!-- Generator: Sketch 39 (31667) - http://www.bohemiancoding.com/sketch -->
    <title>github-icon_2_</title>
    <desc>Created with Sketch.</desc>
    <defs></defs>
    <g id="Page-1" stroke="none" stroke-width="1" fill="none" fill-rule="evenodd">
        <g id="Layer_1" fill="#5B5B5B">
            <path d="M25.1,0 C11.3,0 0,11.3 0,25.1 C0,36.2 7.2,45.7 17.2,49 C18.5,49.2 18.9,48.5 18.9,47.8 L18.9,43.1 C11.9,44.6 10.5,40.1 10.5,40.1 C9.4,37.2 7.7,36.4 7.7,36.4 C5.4,34.8 7.9,34.9 7.9,34.9 C10.4,35.1 11.8,37.5 11.8,37.5 C14,41.3 17.7,40.2 19.1,39.6 C19.3,38 20,36.9 20.7,36.2 C15,35.6 9.1,33.5 9.1,23.8 C9.1,21.1 10.1,18.8 11.7,17.1 C11.4,16.5 10.6,13.9 11.9,10.4 C11.9,10.4 14,9.7 18.8,13 C20.8,12.4 23,12.2 25.1,12.2 C27.2,12.2 29.4,12.5 31.4,13 C36.2,9.7 38.3,10.4 38.3,10.4 C39.7,13.9 38.8,16.4 38.5,17.1 C40.1,18.9 41.1,21.1 41.1,23.8 C41.1,33.5 35.2,35.6 29.6,36.2 C30.5,37 31.3,38.5 31.3,40.9 L31.3,47.8 C31.3,48.5 31.7,49.3 33,49 C43,45.7 50.2,36.3 50.2,25.1 C50.3,11.3 39,0 25.1,0 L25.1,0 Z" id="github-icon_2_"></path>
        </g>
    </g>
</svg>
